img/github.svg

<svg width="110" height="126" viewBox="0 0 110 126" fill="none" xmlns="http://www.w3.org/2000/svg">
<g clip-path="url(#clip0_1_49)">
<path fill-rule="evenodd" clip-rule="evenodd" d="M54.9995 0C24.6281 0 0 28.9184 0 64.595C0 93.1358 15.759 117.348 37.612 125.89C40.3598 126.489 41.369 124.489 41.369 122.783C41.369 121.242 41.318 116.154 41.2943 110.756C25.9934 114.664 22.7647 103.135 22.7647 103.135C20.2628 95.6688 16.658 93.6835 16.658 93.6835C11.667 89.6744 17.0341 89.7578 17.0341 89.7578C22.5561 90.2124 25.4651 96.4143 25.4651 96.4143C30.3705 106.287 38.3316 103.433 41.4701 101.784C41.9637 97.6092 43.3891 94.7585 44.962 93.1454C32.7458 91.5142 19.903 85.9744 19.903 61.2234C19.903 54.1711 22.0525 48.4088 25.5708 43.8841C24.9988 42.2582 23.1162 35.6883 26.1027 26.7909C26.1027 26.7909 30.7203 25.0548 41.2305 33.4121C45.6186 31.9798 50.3246 31.2599 54.9995 31.2353C59.6718 31.2599 64.3805 31.9777 68.7767 33.4099C79.2743 25.0526 83.8864 26.7887 83.8864 26.7887C86.8801 35.6851 84.9976 42.2561 84.4265 43.882C87.953 48.4067 90.0869 54.169 90.0869 61.2213C90.0869 86.0311 77.2205 91.4928 64.9734 93.093C66.947 95.0976 68.7048 99.0297 68.7048 105.055C68.7048 113.698 68.641 120.654 68.641 122.782C68.641 124.501 69.632 126.515 72.4189 125.88C94.2592 117.33 110 93.1251 110 64.595C109.999 28.9206 85.3737 0.00106959 54.9995 0.00106959V0Z" fill="white"/>
<path d="M20.8311 92.7433C20.71 93.0642 20.2801 93.1604 19.8885 92.9411C19.4877 92.7315 19.2646 92.294 19.3939 91.972C19.5123 91.6404 19.9431 91.5495 20.3411 91.7709C20.7419 91.9817 20.9696 92.4234 20.8302 92.7443L20.8311 92.7433ZM23.0589 95.6624C22.7975 95.948 22.2847 95.8153 21.9368 95.3629C21.5761 94.9136 21.5087 94.3114 21.7756 94.0215C22.047 93.737 22.5443 93.8718 22.9049 94.321C23.2638 94.7767 23.3348 95.3736 23.0598 95.6635L23.0589 95.6624ZM25.2283 99.3816C24.8913 99.6576 24.3394 99.3998 23.9988 98.8254C23.6618 98.2499 23.6618 97.56 24.0079 97.2851C24.3476 97.0091 24.8913 97.2583 25.2374 97.8274C25.5726 98.4104 25.5726 99.1003 25.2283 99.3805V99.3816ZM28.1983 102.977C27.8978 103.367 27.2548 103.262 26.7848 102.731C26.3048 102.21 26.171 101.469 26.4724 101.079C26.7784 100.688 27.4242 100.797 27.8969 101.325C28.3768 101.845 28.5217 102.587 28.2002 102.976L28.1983 102.977ZM32.2968 105.064C32.1629 105.57 31.5454 105.8 30.9215 105.584C30.2995 105.362 29.8924 104.771 30.0199 104.259C30.1474 103.749 30.7694 103.511 31.397 103.74C32.019 103.961 32.4261 104.549 32.2968 105.064ZM36.7987 105.45C36.8142 105.983 36.286 106.423 35.6329 106.434C34.9745 106.452 34.4417 106.02 34.4353 105.496C34.4353 104.958 34.9526 104.522 35.6102 104.507C36.2632 104.494 36.7996 104.921 36.7996 105.449L36.7987 105.45ZM40.9865 104.613C41.0648 105.132 40.6103 105.666 39.9609 105.808C39.3234 105.947 38.7314 105.624 38.6494 105.11C38.5711 104.577 39.0338 104.043 39.6713 103.905C40.3216 103.774 40.9045 104.087 40.9865 104.614V104.613Z" fill="white"/>
</g>
<defs>
<clipPath id="clip0_1_49">
<rect width="110" height="126" fill="white"/>
</clipPath>
</defs>
</svg>

<svg xmlns="http://www.w3.org/2000/svg" width="110" height="126" fill="none"><g fill="#fff" clip-path="url(#a)"><path fill-rule="evenodd" d="M55 0C24.627 0 0 28.918 0 64.595c0 28.54 15.759 52.753 37.612 61.295 2.748.599 3.757-1.401 3.757-3.107 0-1.541-.051-6.629-.075-12.027-15.3 3.908-18.53-7.621-18.53-7.621-2.501-7.466-6.106-9.452-6.106-9.452-4.991-4.009.376-3.925.376-3.925 5.522.454 8.431 6.656 8.431 6.656 4.905 9.873 12.867 7.019 16.005 5.37.494-4.175 1.92-7.026 3.492-8.639-12.216-1.63-25.059-7.17-25.059-31.922 0-7.052 2.15-12.814 5.668-17.339-.572-1.626-2.455-8.196.532-17.093 0 0 4.617-1.736 15.127 6.621C45.62 31.98 50.325 31.26 55 31.235c4.672.025 9.38.743 13.777 2.175 10.497-8.357 15.11-6.621 15.11-6.621 2.993 8.896 1.11 15.467.54 17.093 3.526 4.525 5.66 10.287 5.66 17.34 0 24.81-12.867 30.27-25.114 31.871 1.974 2.005 3.732 5.937 3.732 11.962 0 8.643-.064 15.599-.064 17.727 0 1.719.991 3.733 3.778 3.098C94.259 117.33 110 93.125 110 64.595 109.999 28.921 85.374.001 55 .001V0Z" clip-rule="evenodd"/><path d="M20.831 92.743c-.121.321-.55.417-.942.198-.401-.21-.624-.647-.495-.969.118-.332.55-.422.947-.201.4.21.629.652.49.973Zm2.228 2.92c-.262.285-.774.152-1.122-.3-.36-.45-.428-1.052-.161-1.341.271-.285.768-.15 1.129.299.359.456.43 1.053.155 1.343l-.001-.002Zm2.17 3.719c-.338.276-.89.018-1.23-.557-.337-.575-.337-1.265.009-1.54.34-.276.883-.027 1.23.542.335.583.335 1.273-.01 1.553v.002Zm2.97 3.595c-.301.39-.944.285-1.414-.246-.48-.521-.614-1.262-.313-1.652.306-.391.952-.282 1.425.246.48.52.625 1.262.303 1.651l-.002.001Zm4.098 2.087c-.134.506-.752.736-1.375.52-.623-.222-1.03-.813-.902-1.325.127-.51.75-.748 1.377-.519.622.221 1.03.809.9 1.324Zm4.502.386c.015.533-.513.973-1.166.984-.659.018-1.191-.414-1.198-.938 0-.538.518-.974 1.175-.989.653-.013 1.19.414 1.19.942l-.001.001Zm4.188-.837c.078.519-.377 1.053-1.026 1.195-.638.139-1.23-.184-1.312-.698-.078-.533.385-1.067 1.022-1.205.65-.131 1.233.182 1.316.709v-.001Z"/></g><defs><clipPath id="a"><path fill="#fff" d="M0 0h110v126H0z"/></clipPath></defs></svg>
